build/images/last-section/Vectorls-icon-4.svg

<svg width="42" height="79" viewBox="0 0 42 79" fill="none" xmlns="http://www.w3.org/2000/svg">
<path d="M11.8986 7.58455H30.2024M7.61767 2.47339H34.3745C37.4792 2.47339 39.9961 4.99127 39.9961 8.09722V71.8496C39.9961 74.9555 37.4792 77.4734 34.3745 77.4734H7.61767C4.51296 77.4734 1.99609 74.9555 1.99609 71.8496V8.09722C1.99609 4.99127 4.51296 2.47339 7.61767 2.47339ZM18.4208 67.9346H24.1201C25.2407 67.9346 26.1492 68.8435 26.1492 69.9646V70.3996C26.1492 71.5207 25.2407 72.4295 24.1201 72.4295H18.4208C17.3002 72.4295 16.3917 71.5207 16.3917 70.3996V69.9646C16.3917 68.8435 17.3002 67.9346 18.4208 67.9346Z" stroke="#FFC219" stroke-width="3" stroke-miterlimit="10" stroke-linecap="round"/>
</svg>

<svg width="42" height="79" fill="none" xmlns="http://www.w3.org/2000/svg"><path d="M11.899 7.585h18.303M7.618 2.473h26.756a5.623 5.623 0 0 1 5.622 5.624V71.85a5.623 5.623 0 0 1-5.622 5.623H7.618a5.623 5.623 0 0 1-5.622-5.623V8.097a5.623 5.623 0 0 1 5.622-5.624zM18.42 67.935h5.7a2.03 2.03 0 0 1 2.028 2.03v.435a2.03 2.03 0 0 1-2.029 2.03h-5.7a2.03 2.03 0 0 1-2.028-2.03v-.435a2.03 2.03 0 0 1 2.029-2.03z" stroke="#FFC219" stroke-width="3" stroke-miterlimit="10" stroke-linecap="round"/></svg>
